X:1
T:Title
%%score { ( 1 3 ) | 2 }
L:1/8
M:6/4
K:F
V:1 treble nm="Grand Piano"
V:3 treble 
V:2 bass 
V:1
 z6 z4 [DF]2 | [DF]2 [^CE]2 [DF]2 [Fd]2 [DB]2 D2 | [^CG]6 z6 | A2 G2 F2 G2 F2 [C_E]2 | %4
[M:5/4] [B,D]2- [B,D]2- [B,D]6 |[M:1/4] [DF]2 |[M:6/4] [DF]2 [^CE]2 [DF]2 [Fd]2 [Fc]2 [FB]2 | %7
 [G_e]6 [Fd]4 [Fd]2 | [Fc]2 [FA]2 [Fc]2 [EB]2 [EA]2 G2 |[M:5/4] F2- F2- F6 |[M:1/4] F2 | %11
[M:6/4] _E2 F2 G2 A2 d2 c2 | [DB]6- [DB]4 A2 | G2 ^F2 G2 [GB]2 [GB]2 [Gc]2 | %14
[M:5/4] [^Fd]2- [Fd]2- [Fd]6 |[M:1/4] [_EF]2 |[M:6/4] [DF]2 [^CE]2 [DF]2 [Dd]2 [EA]2 [FB]2 | %17
 [_Ec]6 [EG]4 [G_e]2 | [G_e]2 d2 B2 d2 c2 F2 |[M:5/4] [DB]2- [DB]2- [DB]6 |] %20
V:2
 z6 z4 [B,,B,]2 | [B,,B,]2 [B,,B,]2 [B,,B,]2 [B,,B,]2 [B,,F,]2 [B,,F,]2 | %2
 .[B,,E,]6 [B,,B,]4 [B,,B,]2 | [F,C_E]2 [F,B,E]2 [F,A,E]2 [F,A,E]2 [F,A,D]2 [F,,F,]2 | %4
[M:5/4] [B,,F,]2- [B,,F,]2- [B,,F,]6 |[M:1/4] [B,,B,]2 | %6
[M:6/4] [B,,B,]2 [B,,B,]2 [B,,B,]2 [B,,B,]2 [C,A,]2 [D,B,]2 | [_E,B,]6 [B,,B,]4 [B,,B,]2 | %8
 [C,A,]2 [C,C]2 [C,A,]2 [C,G,]2 [C,C]2 [C,B,C]2 |[M:5/4] [F,A,C]2- [F,A,C]2- [F,A,C]6 | %10
[M:1/4] [F,A,C]2 |[M:6/4] [F,A,C]2 [F,A,D]2 [F,B,_E]2 [F,CE]2 [F,B,F]2 [F,A,E]2 | %12
 [B,,B,]6- [B,,B,]4 [D,CD]2 | [G,B,D]2 [G,A,D]2 [G,B,D]2 [_E,B,]2 [E,B,]2 [E,G,]2 | %14
[M:5/4] [D,A,]2- [D,A,]2- [D,A,]6 |[M:1/4] [C,A,]2 | %16
[M:6/4] [B,,B,]2 [B,,B,]2 [B,,B,]2 [B,,F,]2 [C,F,]2 [D,B,]2 | [_E,G,]6 [E,B,]4 [E,B,]2 | %18
 [F,B,]2 [F,B,F]2 [F,DF]2 [F,B,F]2 [F,A,_E]2 [F,A,E]2 |[M:5/4] [B,,B,]2- [B,,B,]2- [B,,B,]6 |] %20
V:3
 x12 | x12 | z4 G,2 [DF]4 [DB]2 | x12 |[M:5/4] x10 |[M:1/4] x2 |[M:6/4] x12 | x12 | x12 | %9
[M:5/4] x10 |[M:1/4] x2 |[M:6/4] x12 | x12 | x12 |[M:5/4] x10 |[M:1/4] x2 |[M:6/4] x12 | x12 | %18
 x12 |[M:5/4] x10 |] %20

